X: 39951
T: Thornton, The
R: jig
M: 6/8
K: Amixolydian
|: "A" c2A ABA|d2e fed|c2A ABA|"G" B2g gdB|
"A" c2A ABA|d2e fec|"G" d2f "A" c2e|"G" B2g gdB:|
|:"A" c2e efe|efg aed|c2e efe|"G" B2g gdB|"A" c2e efe|
efg aec|1 "G" dfd "A" cac|"G" B2g gdB:|2 "G"d2f "A"c2a|"G"B2g gdB||

